src/activities/hexagon/resource/strawberry.svg

<?xml version="1.0" encoding="UTF-8" standalone="no"?>
<!-- Created with Sodipodi ("http://www.sodipodi.com/") -->

<svg
   xmlns:dc="http://purl.org/dc/elements/1.1/"
   xmlns:cc="http://creativecommons.org/ns#"
   xmlns:rdf="http://www.w3.org/1999/02/22-rdf-syntax-ns#"
   xmlns:svg="http://www.w3.org/2000/svg"
   xmlns="http://www.w3.org/2000/svg"
   xmlns:sodipodi="http://sodipodi.sourceforge.net/DTD/sodipodi-0.dtd"
   xmlns:inkscape="http://www.inkscape.org/namespaces/inkscape"
   id="svg822"
   sodipodi:version="0.32"
   width="191.28000pt"
   height="170.89000pt"
   xml:space="preserve"
   sodipodi:docname="strawberry.svg"
   inkscape:version="0.91 r13725"
   version="1.1"><metadata
     id="metadata28"><rdf:RDF><cc:Work
         rdf:about=""><dc:format>image/svg+xml</dc:format><dc:type
           rdf:resource="http://purl.org/dc/dcmitype/StillImage" /></cc:Work></rdf:RDF></metadata><defs
     id="defs824" /><sodipodi:namedview
     id="base"
     inkscape:zoom="3.0179724"
     inkscape:cx="16.084791"
     inkscape:cy="124.96522"
     inkscape:window-width="1880"
     inkscape:window-height="1060"
     inkscape:window-x="-3"
     inkscape:window-y="-3"
     inkscape:current-layer="g799"
     showgrid="false"
     inkscape:window-maximized="1" /><g
     id="g799"
     transform="matrix(1.000000,0.000000,0.000000,1.225035,-265.0786,-768.3753)"><path
       style="font-size:12px;fill:#af1818;fill-opacity:1;fill-rule:evenodd;stroke-width:1"
       d="m 477.65068,696.26745 c 7.77614,45.34655 -43.99599,90.59922 -83.48481,96.37351 -37.88925,5.54051 -103.86844,-22.49405 -111.64469,-67.8406 -7.77615,-45.34655 40.05591,-65.77195 91.28891,-60.42464 44.86082,-22.25179 96.06445,-13.45471 103.84059,31.89173 z"
       id="path739-5"
       sodipodi:nodetypes="ccccc"
       inkscape:connector-curvature="0" /><path
       style="font-size:12px;fill:#eb2828;fill-opacity:1;fill-rule:evenodd;stroke-width:1"
       d="m 469.77,698.4259 c 7.1482,41.6847 -40.4432,83.2831 -76.7432,88.5911 -34.8296,5.0931 -95.4808,-20.6776 -102.6291,-62.3623 -7.1482,-41.6847 36.8213,-60.4607 83.9171,-55.5452 41.2382,-20.4549 88.307,-12.3682 95.4552,29.3164 z"
       id="path739"
       sodipodi:nodetypes="ccccc"
       inkscape:connector-curvature="0" /><path
       style="font-size:12px;fill:#1a7b1a;fill-opacity:1;fill-rule:evenodd"
       d="m 85.344624,12.344624 c -4.220921,12.569893 13.726605,24.908181 16.166606,37.253811 -10.488936,-0.410102 -17.429941,0.383778 -31.627639,-6.617187 0.3951,9.350905 9.709885,13.678147 15.558785,17.090334 -5.1743,3.696033 -8.361047,8.054555 -13.535347,11.750588 13.0397,1.609707 24.65026,-6.843139 34.660061,-3.74873 10.3361,-2.219039 22.38433,2.496308 29.69053,9.927639 0.2786,-4.747362 -1.0994,-11.151583 -0.8208,-15.898929 L 163.14307,46.8834 c -15.39787,-9.014848 -23.55418,4.105884 -31.77588,2.036522 L 120.35352,32.943359 c -2.40888,5.049094 -4.81787,9.62911 -7.875,12.94336 -5.43181,-4.500728 -13.283067,-6.128312 -11.70899,-30.480469 -4.570499,4.948896 -6.612606,0.155194 -15.424906,-3.061626 z"
       transform="matrix(1,0,0,0.81630321,265.0786,627.22722)"
       id="path758"
       inkscape:connector-curvature="0"
       sodipodi:nodetypes="cccccccccccccc" /><g
       id="g4225"
       style="fill:#ec7f7f;fill-opacity:1"><path
         sodipodi:nodetypes="ccccc"
         id="path746"
         d="M 329.31150,735.20110 C 329.83090,737.74220 330.36620,740.72280 328.85890,743.16300 C 327.00990,741.92050 324.87610,739.82910 323.73370,737.02160 C 322.84000,733.80440 323.69380,732.22810 325.47000,731.74490 C 327.24590,731.26160 328.40020,732.19760 329.31150,735.20110 z "
         style="font-size:12px;fill:#ec7f7f;fill-opacity:1;fill-rule:evenodd;stroke-width:1" /><path
         sodipodi:nodetypes="ccccc"
         id="path748"
         d="M 404.33800,770.05540 C 405.06430,772.54530 405.84250,775.47190 404.54070,778.02750 C 402.59590,776.94110 400.29760,775.03190 398.92860,772.32770 C 397.77370,769.19480 398.49520,767.55370 400.22570,766.92630 C 401.95600,766.29880 403.18320,767.13680 404.33800,770.05540 z "
         style="font-size:12px;fill:#ec7f7f;fill-opacity:1;fill-rule:evenodd;stroke-width:1" /><path
         sodipodi:nodetypes="ccccc"
         id="path749"
         d="M 382.43840,744.13960 C 382.48530,746.73280 382.46760,749.76110 380.54030,751.88510 C 378.94910,750.32610 377.23290,747.88030 376.62210,744.91150 C 376.33050,741.58530 377.45760,740.19130 379.29220,740.04030 C 381.12650,739.88930 382.09060,741.02010 382.43840,744.13960 z "
         style="font-size:12px;fill:#ec7f7f;fill-opacity:1;fill-rule:evenodd;stroke-width:1" /><path
         sodipodi:nodetypes="ccccc"
         id="path750"
         d="M 381.70860,770.58260 C 381.94550,773.16550 382.14980,776.18690 380.38330,778.44640 C 378.68210,777.00820 376.79130,774.69480 375.96460,771.77870 C 375.43000,768.48280 376.45200,767.01000 378.27050,766.72500 C 380.08880,766.43990 381.13320,767.49710 381.70860,770.58260 z "
         style="font-size:12px;fill:#ec7f7f;fill-opacity:1;fill-rule:evenodd;stroke-width:1" /><path
         sodipodi:nodetypes="ccccc"
         id="path751"
         d="M 353.96550,741.12460 C 353.99970,743.71810 353.96710,746.74620 352.02950,748.86080 C 350.44590,747.29400 348.74170,744.83980 348.14550,741.86810 C 347.87020,738.54040 349.00420,737.15200 350.83940,737.01000 C 352.67450,736.86800 353.63300,738.00360 353.96550,741.12460 z "
         style="font-size:12px;fill:#ec7f7f;fill-opacity:1;fill-rule:evenodd;stroke-width:1" /><path
         sodipodi:nodetypes="ccccc"
         id="path752"
         d="M 356.63240,765.40270 C 357.17110,767.93980 357.72900,770.91630 356.24040,773.36780 C 354.38200,772.13950 352.23240,770.06430 351.06870,767.26560 C 350.15050,764.05530 350.99230,762.47250 352.76480,761.97590 C 354.53700,761.47910 355.69830,762.40620 356.63240,765.40270 z "
         style="font-size:12px;fill:#ec7f7f;fill-opacity:1;fill-rule:evenodd;stroke-width:1" /><path
         sodipodi:nodetypes="ccccc"
         id="path753"
         d="M 323.44780,713.06450 C 322.63930,715.52910 321.62690,718.38310 319.10840,719.75520 C 318.11830,717.75970 317.30180,714.88560 317.70110,711.88100 C 318.51950,708.64380 320.04240,707.69810 321.82450,708.15870 C 323.60650,708.61920 324.14510,710.00420 323.44780,713.06450 z "
         style="font-size:12px;fill:#ec7f7f;fill-opacity:1;fill-rule:evenodd;stroke-width:1" /><path
         sodipodi:nodetypes="ccccc"
         id="path754"
         d="M 348.10150,717.35160 C 347.75530,719.92200 347.27930,722.91270 345.05270,724.72040 C 343.71580,722.93850 342.38970,720.26100 342.23540,717.23400 C 342.45080,713.90190 343.77600,712.69470 345.61230,712.82320 C 347.44840,712.95160 348.23010,714.21540 348.10150,717.35160 z "
         style="font-size:12px;fill:#ec7f7f;fill-opacity:1;fill-rule:evenodd;stroke-width:1" /><path
         sodipodi:nodetypes="ccccc"
         id="path755"
         d="M 328.10440,753.89700 C 329.26350,756.21720 330.55170,758.95790 329.72700,761.70490 C 327.61950,760.98300 325.01730,759.51480 323.18750,757.09850 C 321.49190,754.22210 321.90890,752.47850 323.49960,751.55230 C 325.09010,750.62600 326.44720,751.23140 328.10440,753.89700 z "
         style="font-size:12px;fill:#ec7f7f;fill-opacity:1;fill-rule:evenodd;stroke-width:1" /><path
         sodipodi:nodetypes="ccccc"
         id="path756"
         d="M 308.08560,730.86380 C 308.65220,733.39480 309.24290,736.36500 307.78140,738.83270 C 305.90950,737.62490 303.73720,735.57360 302.54280,732.78790 C 301.58920,729.58790 302.41350,727.99600 304.18040,727.47980 C 305.94710,726.96350 307.11860,727.87780 308.08560,730.86380 z "
         style="font-size:12px;fill:#ec7f7f;fill-opacity:1;fill-rule:evenodd;stroke-width:1" /><path
         sodipodi:nodetypes="ccccc"
         id="path757"
         d="M 302.22300,706.16060 C 301.19020,708.53980 299.91830,711.28800 297.28370,712.42150 C 296.48230,710.34290 295.93490,707.40570 296.61030,704.45090 C 297.72440,701.30330 299.32820,700.50220 301.06010,701.12570 C 302.79200,701.74900 303.20020,703.17780 302.22300,706.16060 z "
         style="font-size:12px;fill:#ec7f7f;fill-opacity:1;fill-rule:evenodd;stroke-width:1" /><path
         sodipodi:nodetypes="ccccc"
         id="path759"
         d="M 312.41640,690.62340 C 310.32540,692.15810 307.84200,693.89100 304.99510,693.54250 C 305.35030,691.34330 306.35750,688.53040 308.42980,686.31850 C 310.97820,684.16110 312.76710,684.27720 313.94890,685.68850 C 315.13080,687.09950 314.76340,688.53940 312.41640,690.62340 z "
         style="font-size:12px;fill:#ec7f7f;fill-opacity:1;fill-rule:evenodd;stroke-width:1" /><path
         sodipodi:nodetypes="ccccc"
         id="path768"
         d="M 408.78280,739.63950 C 409.31470,742.17820 409.86470,745.15610 408.36950,747.60350 C 406.51440,746.37030 404.37040,744.28930 403.21410,741.48750 C 402.30450,738.27480 403.15060,736.69440 404.92430,736.20230 C 406.69780,735.71030 407.85670,736.64050 408.78280,739.63950 z "
         style="font-size:12px;fill:#ec7f7f;fill-opacity:1;fill-rule:evenodd;stroke-width:1" /><path
         sodipodi:nodetypes="ccccc"
         id="path769"
         d="M 456.84430,691.79120 C 457.76900,694.21460 458.78080,697.06890 457.68930,699.72110 C 455.66320,698.79510 453.21850,697.07740 451.63570,694.49240 C 450.23200,691.46280 450.81890,689.76900 452.49310,689.00400 C 454.16710,688.23900 455.45790,688.97530 456.84430,691.79120 z "
         style="font-size:12px;fill:#ec7f7f;fill-opacity:1;fill-rule:evenodd;stroke-width:1" /><path
         sodipodi:nodetypes="ccccc"
         id="path770"
         d="M 426.54530,726.90590 C 427.29200,729.38990 428.09420,732.31000 426.81330,734.87610 C 424.85970,733.80570 422.54590,731.91530 421.15470,729.22240 C 419.97420,726.09900 420.68230,724.45220 422.40750,723.81060 C 424.13260,723.16890 425.36670,723.99680 426.54530,726.90590 z "
         style="font-size:12px;fill:#ec7f7f;fill-opacity:1;fill-rule:evenodd;stroke-width:1" /><path
         sodipodi:nodetypes="ccccc"
         id="path771"
         d="M 441.11950,707.02720 C 441.38460,709.60740 441.62220,712.62630 439.88060,714.90500 C 438.16370,713.48560 436.24760,711.19310 435.38890,708.28620 C 434.81820,704.99630 435.82410,703.51250 437.63930,703.20750 C 439.45440,702.90250 440.51020,703.94810 441.11950,707.02720 z "
         style="font-size:12px;fill:#ec7f7f;fill-opacity:1;fill-rule:evenodd;stroke-width:1" /><path
         sodipodi:nodetypes="ccccc"
         id="path772"
         d="M 427.94600,756.23440 C 428.04930,758.82620 428.09760,761.85410 426.21690,764.01950 C 424.59220,762.49550 422.82320,760.08770 422.14780,757.13280 C 421.78390,753.81370 422.88060,752.39560 424.71130,752.20470 C 426.54190,752.01370 427.53040,753.12340 427.94600,756.23440 z "
         style="font-size:12px;fill:#ec7f7f;fill-opacity:1;fill-rule:evenodd;stroke-width:1" /><path
         sodipodi:nodetypes="ccccc"
         id="path773"
         d="M 457.42020,720.07630 C 457.00060,722.63590 456.43950,725.61170 454.16220,727.35510 C 452.87670,725.53570 451.62770,722.82140 451.55990,719.79120 C 451.87040,716.46660 453.22970,715.29780 455.06140,715.47870 C 456.89310,715.65960 457.63830,716.94520 457.42020,720.07630 z "
         style="font-size:12px;fill:#ec7f7f;fill-opacity:1;fill-rule:evenodd;stroke-width:1" /><path
         sodipodi:nodetypes="ccccc"
         id="path774"
         d="M 444.38620,738.08400 C 444.25890,740.67470 444.03810,743.69500 441.97250,745.68470 C 440.48950,744.02250 438.94150,741.46710 438.53120,738.46380 C 438.46350,735.12550 439.68180,733.81040 441.52230,733.78290 C 443.36260,733.75530 444.24860,734.94830 444.38620,738.08400 z "
         style="font-size:12px;fill:#ec7f7f;fill-opacity:1;fill-rule:evenodd;stroke-width:1" /></g><path
       inkscape:connector-curvature="0"
       style="font-size:12px;fill:#22a022;fill-opacity:1;fill-rule:evenodd"
       d="m 354.16538,640.95578 c -0.47214,10.06959 13.7668,18.94741 16.2068,29.02519 -10.48894,-0.33477 -16.96134,1.49367 -31.15904,-4.22127 2.3203,6.8474 14.59541,7.25491 18.62131,10.78435 -5.1743,3.01708 -8.34913,3.36565 -13.52343,6.38274 13.0397,1.31401 16.86155,-5.28278 26.87136,-2.7568 10.3361,-1.81141 19.92236,0.0926 27.22856,6.15878 0.2786,-3.87529 -0.61416,-5.64683 -0.33556,-9.52211 l 23.10068,-10.31926 c -9.4336,-4.11308 -17.68006,4.08387 -25.90176,2.39464 l -9.84218,-12.08543 c -2.40888,4.12159 -4.81787,8.05153 -7.875,10.75697 -5.43181,-3.67396 -14.45456,-5.57634 -12.88048,-25.45509 -4.5705,4.0398 -1.69896,1.48319 -10.51126,-1.14271 z"
       id="path758-7"
       sodipodi:nodetypes="cccccccccccccc" /></g></svg>

<!--Created with Sodipodi ("http://www.sodipodi.com/")--><svg xmlns:dc="http://purl.org/dc/elements/1.1/" xmlns:cc="http://creativecommons.org/ns#" xmlns:rdf="http://www.w3.org/1999/02/22-rdf-syntax-ns#" xmlns="http://www.w3.org/2000/svg" xmlns:sodipodi="http://sodipodi.sourceforge.net/DTD/sodipodi-0.dtd" xmlns:inkscape="http://www.inkscape.org/namespaces/inkscape" sodipodi:version="0.32" width="191.28000pt" height="170.89000pt" xml:space="preserve" sodipodi:docname="strawberry.svg" inkscape:version="0.91 r13725"><metadata><rdf:RDF><cc:Work><dc:format>image/svg+xml</dc:format><dc:type rdf:resource="http://purl.org/dc/dcmitype/StillImage"/></cc:Work></rdf:RDF></metadata><sodipodi:namedview inkscape:zoom="3.0179724" inkscape:cx="16.084791" inkscape:cy="124.96522" inkscape:window-width="1880" inkscape:window-height="1060" inkscape:window-x="-3" inkscape:window-y="-3" inkscape:current-layer="g799" showgrid="false" inkscape:window-maximized="1"/><path style="font-size:12px;fill:#af1818;fill-opacity:1;fill-rule:evenodd;stroke-width:1" d="M477.65 696.267c7.777 45.347-43.995 90.6-83.484 96.374-37.89 5.54-103.869-22.494-111.645-67.84-7.776-45.347 40.056-65.773 91.29-60.425 44.86-22.252 96.064-13.455 103.84 31.891z" sodipodi:nodetypes="ccccc" inkscape:connector-curvature="0" transform="matrix(1 0 0 1.22504 -265.079 -768.375)"/><path style="font-size:12px;fill:#eb2828;fill-opacity:1;fill-rule:evenodd;stroke-width:1" d="M469.77 698.426c7.148 41.685-40.443 83.283-76.743 88.591-34.83 5.093-95.481-20.678-102.63-62.362-7.148-41.685 36.822-60.461 83.918-55.546 41.238-20.454 88.307-12.368 95.455 29.317z" sodipodi:nodetypes="ccccc" inkscape:connector-curvature="0" transform="matrix(1 0 0 1.22504 -265.079 -768.375)"/><path style="font-size:12px;fill:#1a7b1a;fill-opacity:1;fill-rule:evenodd" d="M85.345 12.345c-4.221 12.57 13.726 24.908 16.166 37.253-10.489-.41-17.43.384-31.627-6.617.395 9.351 9.71 13.678 15.558 17.09-5.174 3.697-8.36 8.055-13.535 11.751 13.04 1.61 24.65-6.843 34.66-3.749 10.336-2.219 22.384 2.497 29.69 9.928.28-4.747-1.099-11.152-.82-15.899l27.706-15.219c-15.398-9.014-23.554 4.106-31.776 2.037l-11.013-15.977c-2.41 5.05-4.818 9.63-7.875 12.944-5.432-4.501-13.284-6.129-11.71-30.48-4.57 4.948-6.612.154-15.424-3.062z" inkscape:connector-curvature="0" sodipodi:nodetypes="cccccccccccccc"/><g style="fill:#ec7f7f;fill-opacity:1"><path sodipodi:nodetypes="ccccc" d="M329.312 735.201c.519 2.541 1.054 5.522-.453 7.962-1.85-1.243-3.983-3.334-5.125-6.141-.894-3.218-.04-4.794 1.736-5.277 1.776-.483 2.93.453 3.841 3.456z" style="font-size:12px;fill:#ec7f7f;fill-opacity:1;fill-rule:evenodd;stroke-width:1" transform="matrix(1 0 0 1.22504 -265.079 -768.375)"/><path sodipodi:nodetypes="ccccc" d="M404.338 770.055c.726 2.49 1.504 5.417.203 7.973-1.945-1.087-4.243-2.996-5.612-5.7-1.155-3.133-.434-4.774 1.297-5.402 1.73-.627 2.957.21 4.112 3.13z" style="font-size:12px;fill:#ec7f7f;fill-opacity:1;fill-rule:evenodd;stroke-width:1" transform="matrix(1 0 0 1.22504 -265.079 -768.375)"/><path sodipodi:nodetypes="ccccc" d="M382.438 744.14c.047 2.593.03 5.621-1.898 7.745-1.59-1.559-3.307-4.005-3.918-6.973-.292-3.327.836-4.72 2.67-4.872 1.835-.15 2.799.98 3.146 4.1z" style="font-size:12px;fill:#ec7f7f;fill-opacity:1;fill-rule:evenodd;stroke-width:1" transform="matrix(1 0 0 1.22504 -265.079 -768.375)"/><path sodipodi:nodetypes="ccccc" d="M381.709 770.583c.236 2.582.44 5.604-1.326 7.863-1.7-1.438-3.592-3.751-4.418-6.667-.535-3.296.487-4.769 2.306-5.054 1.818-.285 2.862.772 3.438 3.858z" style="font-size:12px;fill:#ec7f7f;fill-opacity:1;fill-rule:evenodd;stroke-width:1" transform="matrix(1 0 0 1.22504 -265.079 -768.375)"/><path sodipodi:nodetypes="ccccc" d="M353.966 741.125c.034 2.593.001 5.621-1.937 7.736-1.583-1.567-3.287-4.021-3.883-6.993-.276-3.328.858-4.716 2.693-4.858 1.836-.142 2.794.994 3.127 4.115z" style="font-size:12px;fill:#ec7f7f;fill-opacity:1;fill-rule:evenodd;stroke-width:1" transform="matrix(1 0 0 1.22504 -265.079 -768.375)"/><path sodipodi:nodetypes="ccccc" d="M356.632 765.403c.54 2.537 1.097 5.513-.392 7.965-1.858-1.229-4.008-3.304-5.171-6.102-.918-3.21-.077-4.793 1.696-5.29 1.772-.497 2.933.43 3.867 3.427z" style="font-size:12px;fill:#ec7f7f;fill-opacity:1;fill-rule:evenodd;stroke-width:1" transform="matrix(1 0 0 1.22504 -265.079 -768.375)"/><path sodipodi:nodetypes="ccccc" d="M323.448 713.064c-.809 2.465-1.821 5.32-4.34 6.691-.99-1.995-1.806-4.87-1.407-7.874.818-3.237 2.341-4.183 4.123-3.722 1.782.46 2.321 1.845 1.624 4.905z" style="font-size:12px;fill:#ec7f7f;fill-opacity:1;fill-rule:evenodd;stroke-width:1" transform="matrix(1 0 0 1.22504 -265.079 -768.375)"/><path sodipodi:nodetypes="ccccc" d="M348.101 717.352c-.346 2.57-.822 5.56-3.048 7.368-1.337-1.782-2.663-4.459-2.818-7.486.216-3.332 1.541-4.54 3.377-4.41 1.836.128 2.618 1.391 2.49 4.528z" style="font-size:12px;fill:#ec7f7f;fill-opacity:1;fill-rule:evenodd;stroke-width:1" transform="matrix(1 0 0 1.22504 -265.079 -768.375)"/><path sodipodi:nodetypes="ccccc" d="M328.104 753.897c1.16 2.32 2.448 5.06 1.623 7.808-2.107-.722-4.71-2.19-6.54-4.607-1.695-2.876-1.278-4.62.313-5.546 1.59-.926 2.947-.32 4.604 2.345z" style="font-size:12px;fill:#ec7f7f;fill-opacity:1;fill-rule:evenodd;stroke-width:1" transform="matrix(1 0 0 1.22504 -265.079 -768.375)"/><path sodipodi:nodetypes="ccccc" d="M308.086 730.864c.566 2.53 1.157 5.501-.305 7.969-1.872-1.208-4.044-3.26-5.238-6.045-.954-3.2-.13-4.792 1.637-5.308 1.767-.517 2.939.398 3.906 3.384z" style="font-size:12px;fill:#ec7f7f;fill-opacity:1;fill-rule:evenodd;stroke-width:1" transform="matrix(1 0 0 1.22504 -265.079 -768.375)"/><path sodipodi:nodetypes="ccccc" d="M302.223 706.16c-1.033 2.38-2.305 5.128-4.94 6.262-.8-2.08-1.348-5.016-.673-7.971 1.114-3.148 2.718-3.949 4.45-3.325 1.732.623 2.14 2.052 1.163 5.035z" style="font-size:12px;fill:#ec7f7f;fill-opacity:1;fill-rule:evenodd;stroke-width:1" transform="matrix(1 0 0 1.22504 -265.079 -768.375)"/><path sodipodi:nodetypes="ccccc" d="M312.416 690.623c-2.09 1.535-4.574 3.268-7.42 2.92.354-2.2 1.362-5.013 3.434-7.225 2.548-2.157 4.337-2.04 5.519-.63 1.182 1.412.814 2.851-1.533 4.935z" style="font-size:12px;fill:#ec7f7f;fill-opacity:1;fill-rule:evenodd;stroke-width:1" transform="matrix(1 0 0 1.22504 -265.079 -768.375)"/><path sodipodi:nodetypes="ccccc" d="M408.783 739.64c.532 2.538 1.082 5.516-.413 7.964-1.856-1.234-4-3.315-5.156-6.117-.91-3.212-.063-4.793 1.71-5.285 1.774-.492 2.933.438 3.859 3.438z" style="font-size:12px;fill:#ec7f7f;fill-opacity:1;fill-rule:evenodd;stroke-width:1" transform="matrix(1 0 0 1.22504 -265.079 -768.375)"/><path sodipodi:nodetypes="ccccc" d="M456.844 691.791c.925 2.424 1.937 5.278.845 7.93-2.026-.926-4.47-2.644-6.053-5.229-1.404-3.03-.817-4.723.857-5.488 1.674-.765 2.965-.029 4.351 2.787z" style="font-size:12px;fill:#ec7f7f;fill-opacity:1;fill-rule:evenodd;stroke-width:1" transform="matrix(1 0 0 1.22504 -265.079 -768.375)"/><path sodipodi:nodetypes="ccccc" d="M426.545 726.906c.747 2.484 1.55 5.404.268 7.97-1.953-1.07-4.267-2.96-5.658-5.654-1.18-3.123-.473-4.77 1.253-5.411 1.725-.642 2.959.186 4.137 3.095z" style="font-size:12px;fill:#ec7f7f;fill-opacity:1;fill-rule:evenodd;stroke-width:1" transform="matrix(1 0 0 1.22504 -265.079 -768.375)"/><path sodipodi:nodetypes="ccccc" d="M441.12 707.027c.265 2.58.502 5.6-1.24 7.878-1.716-1.42-3.632-3.712-4.491-6.619-.57-3.29.435-4.773 2.25-5.078 1.815-.305 2.871.74 3.48 3.82z" style="font-size:12px;fill:#ec7f7f;fill-opacity:1;fill-rule:evenodd;stroke-width:1" transform="matrix(1 0 0 1.22504 -265.079 -768.375)"/><path sodipodi:nodetypes="ccccc" d="M427.946 756.234c.103 2.592.152 5.62-1.73 7.785-1.624-1.524-3.393-3.931-4.068-6.886-.364-3.32.733-4.737 2.563-4.928 1.83-.191 2.82.918 3.235 4.03z" style="font-size:12px;fill:#ec7f7f;fill-opacity:1;fill-rule:evenodd;stroke-width:1" transform="matrix(1 0 0 1.22504 -265.079 -768.375)"/><path sodipodi:nodetypes="ccccc" d="M457.42 720.076c-.42 2.56-.98 5.536-3.258 7.28-1.285-1.82-2.534-4.535-2.602-7.565.31-3.324 1.67-4.493 3.501-4.312 1.832.18 2.577 1.466 2.36 4.597z" style="font-size:12px;fill:#ec7f7f;fill-opacity:1;fill-rule:evenodd;stroke-width:1" transform="matrix(1 0 0 1.22504 -265.079 -768.375)"/><path sodipodi:nodetypes="ccccc" d="M444.386 738.084c-.127 2.59-.348 5.611-2.413 7.6-1.483-1.661-3.031-4.217-3.442-7.22-.067-3.339 1.15-4.654 2.991-4.681 1.84-.028 2.727 1.165 2.864 4.301z" style="font-size:12px;fill:#ec7f7f;fill-opacity:1;fill-rule:evenodd;stroke-width:1" transform="matrix(1 0 0 1.22504 -265.079 -768.375)"/></g><path inkscape:connector-curvature="0" style="font-size:12px;fill:#22a022;fill-opacity:1;fill-rule:evenodd" d="M354.165 640.956c-.472 10.07 13.767 18.947 16.207 29.025-10.489-.335-16.961 1.494-31.159-4.221 2.32 6.847 14.596 7.255 18.621 10.784-5.174 3.017-8.349 3.366-13.523 6.383 13.04 1.314 16.862-5.283 26.871-2.757 10.336-1.811 19.923.093 27.229 6.159.279-3.876-.614-5.647-.336-9.522l23.101-10.32c-9.434-4.113-17.68 4.084-25.902 2.395l-9.842-12.085c-2.409 4.121-4.818 8.051-7.875 10.757-5.432-3.674-14.454-5.577-12.88-25.456-4.57 4.04-1.7 1.484-10.512-1.142z" sodipodi:nodetypes="cccccccccccccc" transform="matrix(1 0 0 1.22504 -265.079 -768.375)"/></svg>
